X:1
T:Étude No 3 transpose
T:Étude
T:Op. 10, No. 3
T:Frédéric Chopin
%%score { ( 1 3 4 ) | ( 2 5 6 ) }
L:1/8
M:2/4
K:E
V:1 treble 
V:3 treble 
V:4 treble 
V:2 bass 
V:5 bass 
V:6 bass 
V:1
 z[Q:1/4=50]"^Lento ma non troppo" B, | ED/E/ F2- | F/G/G/F/ [EG-]2 | G/A/A/G/ c>B | A/G/D/E/ F2- | %5
 F/G/G/F/ E2 | G/A/F/G/ A/B/G/A/ | c F2{/^A} G/F/- | F{/^A}G/F/ [DB]2 | [EG]D/E/ F2- | %10
 F/G/G/F/ G2- | G/A/A/G/ c>B | A/G/D/E/ F2- | F/G/G/F/ E2 | B/c/c/B/ A/B/G/A/ | %15
 d/e/e/d/ c/d/^B/c/ | [E^Ae]/[FAf]/[DAd]/[EAe]/ [FAf]/[GAg]/[EAe]/[FAf]/ | [eg-]2 g/f/e/c/ | %18
 d2 e/d/c/G/ | B2 c/B/A/E/ | G4 |{GF} E2 z2 |] %22
V:2
 z2 | E,,2 B,,,2 | B,,,2 E,,2 | E,,2 B,,,2 | E,,2 B,,,2 | B,,,2 E,,2 | E,,2 A,,2 | A,,2 B,,2 | %8
 C,2 B,,2 | E,,2 B,,,2 | B,,,2 E,,2 | E,,2 B,,,2 | E,,2 B,,,2 | B,,,2 E,,2 | E,,2 A,,2 | G,,2 C,2 | %16
 [C,E,F,^A,]/[C,E,F,A,]/[C,E,F,A,]/[C,E,F,A,]/ [=C,E,F,A,]/[C,E,F,A,]/[C,E,F,A,]/[C,E,F,A,]/ | %17
 [B,,E,G,B,]4 | F,/B,/B,,/B,/ C,/G,/G,,/G,/ | D,/G,/G,,/G,/ A,,/E,/E,,/E,/ | %20
 B,,/E,/E,,/E,/ B,,/E,/E,,/B,,/- | [E,,B,,]2 z2 |] %22
V:3
 x2 | G,/B,/G,/B,/ A,/B,/A,/B,/ | A,/B,/A,/B,/ G,/B,/G,/B,/ | G,/E/B,/E/ D/A/B,/D/ | %4
 B,/E/G,/B,/ [A,C]/[B,D]/[A,C]/[B,D]/ | [A,C]/[B,D]/[A,C]/[B,D]/ G,/B,/G,/B,/ | %6
 =D/E/D/E/ C/E/C/E/ | C/E/C/E/ B,/E/B,/E/ | ^A,/E/A,/E/ =A,/B,/A,/B,/ | G,/B,/G,/B,/ A,/B,/A,/B,/ | %10
 A,/B,/A,/B,/ G,/B,/G,/B,/ | G,/E/B,/E/ D/A/B,/D/ | B,/E/G,/B,/ [A,C]/[B,D]/[A,C]/[B,D]/ | %13
 [A,C]/[B,D]/[A,C]/[B,D]/ G,/B,/G,/B,/ | [=DF]/[EG]/[DF]/[EG]/ C/E/C/E/ | %15
 [F^B-]/[GB]/[F^A]/[GB]/ E/G/E/G/ | x4 | G/B/G/B/ G/B/G/B/ | D/F/D/F/ E/G/E/G/ | %19
 B,/D/B,/D/ C/E/C/E/ | G,/B,/G,/B,/ G,/B,/G,/B,/ | G,2 z2 |] %22
V:4
 x2 | x2 D2- | DD x2 | x4 | x4 | x4 | x4 | x4 | x4 | x2 D2- | DD x2 | x4 | x4 | x4 | x4 | x4 | x4 | %17
 x4 | x4 | x4 | x4 | x4 |] %22
V:5
 x2 | E,,/B,,B,,/ B,,,/B,,B,,/ | B,,,/B,,B,,/ E,,/B,,B,,/ | E,,/B,,B,,/ B,,,/B,,B,,/ | %4
 E,,/B,,B,,/ B,,,/B,,B,,/ | B,,,/B,,B,,/ E,,/B,,B,,/ | E,,/E,E,/ A,,/E,E,/ | A,,/F,F,/ B,,/F,F,/ | %8
 C,/F,F,/ B,,/F,F,/ | E,,/B,,B,,/ B,,,/B,,B,,/ | B,,,/B,,B,,/ E,,/B,,B,,/ | %11
 E,,/B,,B,,/ B,,,/B,,B,,/ | E,,/B,,B,,/ B,,,/B,,B,,/ | B,,,/B,,B,,/ E,,/B,,B,,/ | %14
 E,,/E,E,/ A,,/E,E,/ | G,,/G,G,/ C,/G,G,/ | x4 | x4 | x4 | x4 | x3 E,,- | E,,2 z2 |] %22
V:6
 x2 | x4 | x4 | x4 | x4 | x4 | x4 | x4 | x4 | x4 | x4 | x4 | x4 | x4 | x4 | x4 | x4 | x4 | x4 | %19
 x4 | x4 | E,2 z2 |] %22

